X:462
T: "Prinz Eugen vor Ryssel"
N: Z1142
O: Europa, Mitteleuropa, Deutschland
R: Vaterland und Wehr
M: 4/4
L: 1/16
K: G
 | G4D3DB,4D4 | G4G4G4z4 |
B4B4A4B4 | c4B4A4z4 |
A4A4d4d4 | A2G2F2E2F4D4 |
A4A4d4d4 | A2G2F2E2F4D4 |
G4G4A4A4 | B4B4A4z4 | B4B4A4z4 |
d6c2B4B4 | A4A4G4z4

@@@ Tune index: 10220
